resources/svg/menu-3-fill.svg

<svg xmlns="http://www.w3.org/2000/svg" viewBox="0 0 24 24" fill="currentColor">
    <g>
        <path fill="none" d="M0 0h24v24H0z"/>
        <path d="M3 4h18v2H3V4zm6 7h12v2H9v-2zm-6 7h18v2H3v-2z"/>
    </g>
</svg>

<svg fill="currentColor" viewBox="0 0 24 24" xmlns="http://www.w3.org/2000/svg"><path d="M3 4H21V6H3V4ZM9 11H21V13H9V11ZM3 18H21V20H3V18Z"/></svg>
